logos/concretecms.svg

<?xml version="1.0" encoding="UTF-8"?>
<svg width="512px" height="96px" viewBox="0 0 512 96" version="1.1" xmlns="http://www.w3.org/2000/svg" preserveAspectRatio="xMidYMid">
    <title>ConcreteCMS</title>
    <g>
        <g>
            <path d="M7.83173996,0 L88.1070746,0 C92.4145315,0 95.9388145,3.52428298 95.9388145,7.83173996 L95.9388145,88.1070746 C95.9388145,92.4145315 92.4145315,95.9388145 88.1070746,95.9388145 L7.83173996,95.9388145 C3.52428298,95.9388145 0,92.4145315 0,88.1070746 L0,7.83173996 C0,3.52428298 3.52428298,0 7.83173996,0 Z" fill="#181819"></path>
            <path d="M57.7590822,79.9014669 C55.0179732,81.3699182 51.4936902,82.2509889 49.4378585,82.4467824 C41.2145315,83.1320597 32.9912046,80.9783312 27.3131931,75.4961132 C21.7330784,69.6223082 20.5583174,61.7905683 25.6489484,55.3293828 C30.3479924,49.3576811 37.9839388,46.7144688 45.9135755,46.4207786 C50.3189293,46.2249851 65.1992352,47.9871266 60.7938815,55.1335893 C57.2695985,61.0073943 47.5778203,55.1335893 41.9977055,56.9936275 C35.7323136,59.0494593 33.9701721,67.370683 39.8439771,70.894966 C44.151434,73.4402815 50.3189293,73.244488 54.4305927,70.6012757 C60.3043977,66.7833025 71.2688337,48.8681973 78.3173996,57.3852145 C79.6879541,59.147356 63.1434034,76.9645644 57.7590822,79.9014669 M16.4466539,33.4984076 C15.8592734,30.5615052 16.6424474,27.2330157 19.5793499,27.6246027 C22.1246654,28.0161897 23.0057361,31.6383694 23.4952199,34.1836849 C23.8868069,36.3374134 29.1732314,51.6093063 26.4321224,51.1198226 C23.7889101,50.5324421 17.0340344,36.5332069 16.4466539,33.4984076 M30.5437859,16.3664765 C34.4596558,13.037987 36.3196941,18.7159985 36.8091778,21.5550042 C37.2007648,24.2961132 42.193499,45.0502241 36.9070746,44.6586371 C32.8933078,44.3649468 30.1521989,26.7435319 29.8585086,24.0024229 C29.4669216,21.8486945 28.5858509,18.0307212 30.5437859,16.3664765 M50.7105163,10.4926715 C54.0390057,11.1779488 53.157935,18.0307212 53.0600382,20.5760367 C53.0600382,23.3171457 53.3537285,43.7775663 49.0462715,43.1901859 C44.6409178,42.5049086 45.717782,22.2402815 45.5219885,19.0096887 C45.6198853,15.6811992 46.109369,9.61160076 50.7105163,10.4926715 M60.8917782,25.1771839 C61.2833652,23.1213522 61.6749522,19.303379 64.0244742,18.4223082 C68.6256214,16.56227 68.5277247,22.3381782 68.0382409,25.0792872 C67.4508604,27.7224994 63.9265774,48.3787136 59.2275335,46.4207786 C55.7032505,44.9523273 60.3043977,27.8203962 60.8917782,25.1771839" fill="#FFFFFF"></path>
        </g>
        <path d="M121.294073,37.2184841 C123.154111,33.8899946 125.699426,31.3446792 129.027916,29.4846409 C132.258509,27.6246027 135.978585,26.7435319 139.992352,26.7435319 C144.691396,26.7435319 148.900956,27.9182929 152.425239,30.3657117 C155.949522,32.8131304 158.494837,36.1416199 159.865392,40.4490769 L150.075717,40.4490769 C149.09675,38.3932451 147.726195,36.9247939 145.964054,35.8479296 C144.201912,34.8689621 142.14608,34.3794784 139.894455,34.3794784 C137.591002,34.3794784 135.460986,34.8997878 133.66764,35.9404065 L133.335373,36.1416199 C131.377438,37.3163809 129.908987,38.8827289 128.832122,41.0364574 C127.755258,43.1901859 127.265774,45.6376046 127.265774,48.4766103 C127.265774,51.3156161 127.755258,53.7630348 128.832122,55.8188665 C129.908987,57.972595 131.377438,59.538943 133.335373,60.713704 C135.293308,61.888465 137.447036,62.4758455 139.894455,62.4758455 C142.243977,62.4758455 144.201912,61.9863618 145.964054,60.9094975 C147.726195,59.8326333 149.09675,58.364182 150.075717,56.3083503 L159.865392,56.3083503 C158.494837,60.6158073 155.949522,64.0421935 152.425239,66.3917155 C148.900956,68.8391342 144.691396,70.0138952 139.992352,70.0138952 C135.978585,70.0138952 132.258509,69.1328245 129.027916,67.2727862 C125.797323,65.412748 123.154111,62.8674325 121.294073,59.6368398 C119.434034,56.406247 118.455067,52.5882738 118.455067,48.4766103 C118.455067,44.2670501 119.434034,40.5469736 121.294073,37.2184841 Z M184.045889,61.6926715 C185.416444,60.9094975 186.493308,59.8326333 187.276482,58.364182 C188.059656,56.8957308 188.451243,55.0356925 188.451243,52.8819641 C188.451243,49.780595 187.639248,47.4009992 186.101871,45.7431764 L185.905927,45.5397078 C184.241683,43.7775663 182.185851,42.9943924 179.738432,42.9943924 C177.291013,42.9943924 175.235182,43.8754631 173.668834,45.5397078 C172.102486,47.2039526 171.221415,49.7492681 171.221415,52.8819641 C171.221415,56.1125568 172.004589,58.5599755 173.570937,60.2242203 C175.137285,61.9863618 177.193117,62.7695358 179.640535,62.7695358 C181.206883,62.8674325 182.675335,62.4758455 184.045889,61.6926715 Z M170.927725,68.0559602 C168.382409,66.587509 166.326577,64.629574 164.858126,61.9863618 C163.389675,59.3431495 162.606501,56.3083503 162.606501,52.8819641 C162.606501,49.4555778 163.389675,46.4207786 164.858126,43.7775663 C166.349886,41.2602214 168.285622,39.2756478 170.749902,37.9084126 L171.123518,37.7079679 C173.76673,36.2395166 176.703633,35.5542394 179.934226,35.5542394 C183.164818,35.5542394 186.101721,36.2395166 188.744933,37.7079679 C191.388145,39.1764191 193.443977,41.1343541 195.010325,43.7775663 C196.576673,46.4207786 197.26195,49.4555778 197.26195,52.8819641 C197.26195,56.3083503 196.478776,59.3431495 194.912428,61.9863618 C193.420668,64.5037067 191.484932,66.4882803 189.020653,67.8555156 L188.647036,68.0559602 C186.003824,69.5244115 183.066922,70.2096887 179.738432,70.2096887 C176.409943,70.2096887 173.47304,69.5244115 170.927725,68.0559602 Z M229.372084,39.3722126 C231.819503,41.9175281 233.092161,45.4418111 233.092161,49.9450616 L233.092161,69.6223082 L224.575143,69.6223082 L224.575143,51.0219258 C224.575143,48.3787136 223.889866,46.3228818 222.617208,44.8544306 C221.246654,43.3859793 219.484512,42.7007021 217.13499,42.7007021 C214.785468,42.7007021 212.92543,43.3859793 211.554876,44.8544306 C210.184321,46.3228818 209.499044,48.3787136 209.499044,51.0219258 L209.499044,69.6223082 L200.982027,69.6223082 L200.982027,36.0437231 L209.499044,36.0437231 L209.499044,40.2532834 C210.673805,38.7848321 212.044359,37.6100711 213.806501,36.8268971 C215.568642,36.0437231 217.526577,35.5542394 219.582409,35.5542394 C223.694073,35.5542394 226.924665,36.8268971 229.372084,39.3722126 Z M238.672275,43.7775663 C240.04283,41.1343541 242.098662,39.1764191 244.54608,37.7079679 C247.091396,36.2395166 249.930402,35.5542394 253.160994,35.5542394 C257.370554,35.5542394 260.796941,36.6311036 263.53805,38.6869354 C266.279159,40.7427671 268.139197,43.6796696 269.020268,47.4976428 L259.817973,47.4976428 C259.328489,46.0291916 258.545315,44.8544306 257.370554,44.0712566 C256.195793,43.2880826 254.825239,42.7985989 253.063098,42.7985989 C250.615679,42.7985989 248.755641,43.6796696 247.287189,45.4418111 C245.916635,47.2039526 245.133461,49.6513713 245.133461,52.9798608 C245.133461,56.0758455 245.762821,58.452561 247.107705,60.1961698 L247.287189,60.4200138 C248.657744,62.1821553 250.615679,63.063226 253.063098,63.063226 C256.489484,63.063226 258.741109,61.496878 259.817973,58.4620788 L269.020268,58.4620788 C268.0413,62.0842585 266.279159,65.021161 263.53805,67.1748895 C260.796941,69.328618 257.370554,70.4054822 253.258891,70.4054822 C250.028298,70.4054822 247.189293,69.720205 244.643977,68.2517537 C242.098662,66.7833025 240.140727,64.8253675 238.770172,62.1821553 C237.468145,59.6711036 236.696229,56.8066447 236.622293,53.5887786 L236.616444,53.0777576 C236.518547,49.3576811 237.203824,46.3228818 238.672275,43.7775663 Z M285.662715,37.1205874 C287.424857,36.1416199 289.480688,35.6521361 291.732314,35.6521361 L291.732314,44.4628436 L289.480688,44.4628436 C286.837476,44.4628436 284.781644,45.0502241 283.41109,46.3228818 C282.040535,47.5955396 281.355258,49.7492681 281.355258,52.8819641 L281.355258,69.6223082 L272.838241,69.6223082 L272.838241,36.0437231 L281.355258,36.0437231 L281.355258,41.2322509 C282.432122,39.4701094 283.900574,38.0995549 285.662715,37.1205874 Z M317.381262,49.7492681 C317.381262,47.5955396 316.598088,45.8333981 315.03174,44.4628436 C313.465392,43.1901859 311.605354,42.5049086 309.353728,42.5049086 C307.406098,42.5049086 305.634194,43.1199497 304.287732,44.2667932 L304.067304,44.4628436 C302.598853,45.7355013 301.717782,47.4976428 301.424092,49.7492681 L317.381262,49.7492681 Z M325.996176,55.4272795 L301.424092,55.4272795 C301.619885,57.8746983 302.500956,59.7347365 303.969407,61.105291 C305.437859,62.4758455 307.297897,63.1611228 309.451625,63.1611228 C312.584321,63.1611228 314.835946,61.7905683 316.206501,59.0494593 L325.408795,59.0494593 C324.429828,62.280052 322.56979,64.9232642 319.828681,67.0769927 C317.087572,69.1328245 313.661185,70.2096887 309.647419,70.2096887 C306.416826,70.2096887 303.479924,69.5244115 300.934608,68.0559602 C298.510498,66.6574352 296.530364,64.8149341 295.16334,62.3593229 L294.962906,61.9863618 C293.494455,59.3431495 292.809178,56.3083503 292.809178,52.8819641 C292.809178,49.5255041 293.430744,46.6130203 294.758445,44.0599458 L294.962906,43.6796696 C296.333461,41.0364574 298.389293,38.9806256 300.934608,37.6100711 C303.479924,36.2395166 306.416826,35.4563426 309.745315,35.4563426 C312.975908,35.4563426 315.814914,36.1416199 318.360229,37.5121744 C320.905545,38.8827289 322.86348,40.8406639 324.234034,43.3859793 C325.604589,45.9312948 326.289866,48.7703006 326.289866,52.0987901 L326.216444,53.0181017 L326.216444,53.0181017 L326.143021,53.8731686 L326.143021,53.8731686 L325.996176,55.4272795 Z M339.799618,43.0922891 L339.799618,59.3431495 C339.799618,60.5179105 340.093308,61.3010845 340.582792,61.7905683 C341.170172,62.280052 342.051243,62.5737423 343.323901,62.5737423 L347.239771,62.5737423 L347.239771,69.720205 L341.855449,69.720205 C334.708987,69.720205 331.086807,66.195922 331.086807,59.2452528 L331.086807,43.0922891 L327.07304,43.0922891 L327.07304,36.1416199 L331.086807,36.1416199 L331.086807,27.8203962 L339.603824,27.8203962 L339.603824,36.1416199 L347.141874,36.1416199 L347.141874,43.0922891 L339.799618,43.0922891 Z M373.573996,49.7492681 C373.573996,47.5955396 372.790822,45.8333981 371.224474,44.4628436 C369.658126,43.1901859 367.798088,42.5049086 365.546463,42.5049086 C363.598833,42.5049086 361.826929,43.1199497 360.480466,44.2667932 L360.260038,44.4628436 C358.791587,45.7355013 357.910516,47.4976428 357.616826,49.7492681 L373.573996,49.7492681 Z M382.091013,55.4272795 L357.518929,55.4272795 C357.714723,57.8746983 358.595793,59.7347365 360.064245,61.105291 C361.532696,62.4758455 363.392734,63.1611228 365.546463,63.1611228 C368.679159,63.1611228 370.930784,61.7905683 372.301338,59.0494593 L381.503633,59.0494593 C380.524665,62.280052 378.664627,64.9232642 375.923518,67.0769927 C373.182409,69.1328245 369.756023,70.2096887 365.742256,70.2096887 C362.511663,70.2096887 359.574761,69.5244115 357.029446,68.0559602 C354.605336,66.6574352 352.625202,64.8149341 351.258178,62.3593229 L351.057744,61.9863618 C349.589293,59.3431495 348.904015,56.3083503 348.904015,52.8819641 C348.904015,49.5255041 349.525582,46.6130203 350.853282,44.0599458 L351.057744,43.6796696 C352.428298,41.0364574 354.48413,38.9806256 357.029446,37.6100711 C359.574761,36.2395166 362.511663,35.4563426 365.840153,35.4563426 C369.070746,35.4563426 371.909751,36.1416199 374.455067,37.5121744 C377.000382,38.8827289 378.958317,40.8406639 380.328872,43.3859793 C381.699426,45.9312948 382.384704,48.7703006 382.384704,52.0987901 L382.352008,52.5670501 L382.352008,52.5670501 L382.27457,53.8731686 C382.247036,54.2861706 382.21262,54.6785224 382.155832,55.0553866 L382.091013,55.4272795 Z M386.648807,37.6365919 L386.887954,37.2184841 C388.747992,33.8899946 391.293308,31.3446792 394.621797,29.4846409 C397.85239,27.6246027 401.572467,26.7435319 405.586233,26.7435319 C410.285277,26.7435319 414.494837,27.9182929 418.01912,30.3657117 C421.543403,32.8131304 424.088719,36.1416199 425.459273,40.4490769 L415.669598,40.4490769 C414.690631,38.3932451 413.320076,36.9247939 411.557935,35.8479296 C409.795793,34.8689621 407.739962,34.3794784 405.488337,34.3794784 C403.184884,34.3794784 401.054867,34.8997878 399.261521,35.9404065 L398.929254,36.1416199 C396.971319,37.3163809 395.502868,38.8827289 394.426004,41.0364574 C393.34914,43.1901859 392.859656,45.6376046 392.859656,48.4766103 C392.859656,51.3156161 393.34914,53.7630348 394.426004,55.8188665 C395.502868,57.8746983 396.971319,59.538943 398.929254,60.713704 C400.887189,61.888465 403.040918,62.4758455 405.488337,62.4758455 C407.837859,62.4758455 409.795793,61.9863618 411.557935,60.9094975 C413.320076,59.8326333 414.690631,58.364182 415.669598,56.3083503 L425.459273,56.3083503 C424.088719,60.6158073 421.543403,64.0421935 418.01912,66.3917155 C414.494837,68.8391342 410.285277,70.0138952 405.586233,70.0138952 C401.572467,70.0138952 397.85239,69.1328245 394.621797,67.2727862 C391.391205,65.412748 388.747992,62.8674325 386.887954,59.6368398 C385.027916,56.406247 384.048948,52.5882738 384.048948,48.4766103 C384.048948,44.4424484 384.858126,40.8578298 386.648807,37.6365919 L386.648807,37.6365919 Z M476.46348,27.3309124 L476.46348,69.720205 L467.946463,69.720205 L467.946463,42.1133216 L456.59044,69.720205 L450.227151,69.720205 L438.773231,42.1133216 L438.773231,69.720205 L430.256214,69.720205 L430.256214,27.3309124 L439.947992,27.3309124 L453.359847,58.8536658 L466.869598,27.3309124 L476.46348,27.3309124 Z M489.092161,68.6433407 C486.742639,67.6643732 484.8826,66.195922 483.512046,64.237987 C482.141491,62.3779488 481.456214,60.1263235 481.358317,57.4831113 L490.462715,57.4831113 C490.560612,59.2452528 491.245889,60.6158073 492.322753,61.5947748 C493.399618,62.5737423 494.965966,63.1611228 496.923901,63.1611228 C498.881836,63.1611228 500.448184,62.671639 501.622945,61.6926715 C502.797706,60.713704 503.287189,59.538943 503.287189,57.972595 C503.287189,56.6999373 502.895602,55.7209698 502.112428,54.839899 C501.329254,54.056725 500.350287,53.3714478 499.273423,52.8819641 C499.021688,52.7770747 498.751973,52.6721853 498.463313,52.5663327 L497.860449,52.3530576 L497.860449,52.3530576 L497.205354,52.1355013 L497.205354,52.1355013 L496.496316,51.9119514 L496.496316,51.9119514 L495.731622,51.6806953 L495.731622,51.6806953 L494.909561,51.4400206 L494.909561,51.4400206 L494.476482,51.3156161 C491.735373,50.5324421 489.483748,49.7492681 487.721606,48.9660941 C485.959465,48.1829201 484.491013,47.0081591 483.316252,45.3439143 C482.043595,43.7775663 481.456214,41.6238379 481.456214,38.9806256 C481.456214,36.4353101 482.043595,34.2815816 483.316252,32.4215434 C484.58891,30.5615052 486.351052,29.0930539 488.602677,28.1140864 C490.854302,27.1351189 493.497514,26.6456352 496.33652,26.6456352 C500.741874,26.6456352 504.266157,27.7224994 507.007266,29.8762279 C509.748375,32.0299564 511.216826,34.9668589 511.510516,38.7848321 L502.210325,38.7848321 C502.112428,37.3163809 501.525048,36.1416199 500.350287,35.1626524 C499.175526,34.1836849 497.707075,33.6942011 495.74914,33.6942011 C494.084895,33.6942011 492.812237,34.0857881 491.735373,34.9668589 C490.756405,35.8479296 490.266922,37.0226906 490.266922,38.6869354 C490.266922,39.8616964 490.658509,40.7427671 491.343786,41.5259411 C492.048642,42.2307977 492.832795,42.7770616 493.838978,43.2360994 L494.182792,43.3859793 C494.757119,43.6470373 495.470678,43.9080953 496.323467,44.1840046 L496.989165,44.3939533 L496.989165,44.3939533 L497.707075,44.6108635 L497.707075,44.6108635 L498.881836,44.9523273 C501.074723,45.5788665 502.95434,46.2680597 504.520688,46.9196604 L505.277757,47.241864 C505.399584,47.2948878 505.519235,47.3475345 505.636711,47.3997461 C507.398853,48.1829201 508.867304,49.4555778 510.139962,51.0219258 C511.41262,52.6861706 512,54.7420023 512,57.3852145 C512,59.6368398 511.41262,61.7905683 510.237859,63.6506065 C509.063098,65.6085415 507.300956,67.1748895 505.049331,68.2517537 C502.797706,69.328618 500.056597,70.0138952 497.021797,70.0138952 C494.084895,70.111792 491.441683,69.6223082 489.092161,68.6433407 Z" fill="#2A2A2A"></path>
    </g>
</svg>

<svg preserveAspectRatio="xMidYMid" viewBox="0 0 512 96" xmlns="http://www.w3.org/2000/svg">
  <path fill="#181819" d="M7.832 0h80.275c4.308 0 7.832 3.524 7.832 7.832v80.275c0 4.308-3.524 7.832-7.832 7.832H7.832C3.524 95.939 0 92.415 0 88.107V7.832C0 3.524 3.524 0 7.832 0Z"/>
  <path fill="#FFF" d="M57.76 79.901c-2.742 1.469-6.266 2.35-8.322 2.546-8.223.685-16.447-1.469-22.125-6.95-5.58-5.875-6.755-13.706-1.664-20.168 4.699-5.971 12.335-8.615 20.265-8.908 4.405-.196 19.285 1.566 14.88 8.713-3.524 5.873-13.216 0-18.796 1.86-6.266 2.055-8.028 10.377-2.154 13.901 4.307 2.545 10.475 2.35 14.587-.294 5.873-3.818 16.838-21.733 23.886-13.216 1.371 1.762-15.174 19.58-20.558 22.516M16.447 33.498c-.588-2.936.195-6.265 3.132-5.873 2.546.391 3.427 4.013 3.916 6.559.392 2.153 5.678 17.425 2.937 16.936-2.643-.588-9.398-14.587-9.985-17.622m14.097-17.132c3.916-3.328 5.776 2.35 6.265 5.189.392 2.741 5.384 23.495.098 23.104-4.014-.294-6.755-17.915-7.048-20.657-.392-2.153-1.273-5.971.685-7.636m20.167-5.873c3.328.685 2.447 7.538 2.349 10.083 0 2.741.294 23.202-4.014 22.614-4.405-.685-3.328-20.95-3.524-24.18.098-3.329.587-9.398 5.189-8.517m10.18 14.684c.392-2.056.784-5.874 3.133-6.755 4.602-1.86 4.504 3.916 4.014 6.657-.587 2.643-4.111 23.3-8.81 21.342-3.525-1.469 1.076-18.6 1.664-21.244"/>
  <path fill="#2A2A2A" d="M121.294 37.218c1.86-3.328 4.405-5.873 7.734-7.733 3.23-1.86 6.95-2.741 10.964-2.741 4.7 0 8.909 1.174 12.433 3.622 3.525 2.447 6.07 5.776 7.44 10.083h-9.79c-.978-2.056-2.349-3.524-4.11-4.601-1.763-.979-3.819-1.469-6.07-1.469-2.304 0-4.434.52-6.227 1.561l-.333.202c-1.958 1.174-3.426 2.74-4.503 4.894s-1.566 4.602-1.566 7.44c0 2.84.49 5.287 1.566 7.343 1.077 2.154 2.545 3.72 4.503 4.895 1.958 1.174 4.112 1.762 6.56 1.762 2.349 0 4.307-.49 6.07-1.567 1.761-1.076 3.132-2.545 4.11-4.6h9.79c-1.37 4.307-3.915 7.733-7.44 10.083-3.524 2.447-7.734 3.622-12.433 3.622-4.013 0-7.733-.881-10.964-2.741-3.23-1.86-5.874-4.406-7.734-7.636-1.86-3.23-2.839-7.049-2.839-11.16 0-4.21.979-7.93 2.84-11.259Zm62.752 24.475a8.147 8.147 0 0 0 3.23-3.329c.784-1.468 1.175-3.328 1.175-5.482 0-3.101-.812-5.481-2.35-7.139l-.195-.203c-1.664-1.762-3.72-2.546-6.168-2.546-2.447 0-4.503.881-6.07 2.546-1.566 1.664-2.447 4.21-2.447 7.342 0 3.23.784 5.678 2.35 7.342 1.566 1.762 3.622 2.546 6.07 2.546 1.566.097 3.034-.294 4.405-1.077Zm-13.118 6.363c-2.546-1.468-4.601-3.426-6.07-6.07-1.468-2.643-2.251-5.678-2.251-9.104 0-3.426.783-6.461 2.251-9.104 1.492-2.518 3.428-4.502 5.892-5.87l.374-.2c2.643-1.468 5.58-2.154 8.81-2.154 3.23 0 6.168.686 8.81 2.154 2.644 1.468 4.7 3.426 6.266 6.07 1.567 2.643 2.252 5.678 2.252 9.104 0 3.426-.783 6.461-2.35 9.104-1.491 2.518-3.427 4.502-5.891 5.87l-.374.2c-2.643 1.468-5.58 2.154-8.909 2.154-3.328 0-6.265-.686-8.81-2.154Zm58.444-28.684c2.448 2.546 3.72 6.07 3.72 10.573v19.677h-8.517v-18.6c0-2.643-.685-4.7-1.958-6.168-1.37-1.468-3.132-2.153-5.482-2.153s-4.21.685-5.58 2.153c-1.37 1.469-2.056 3.525-2.056 6.168v18.6h-8.517V36.044h8.517v4.21c1.175-1.47 2.545-2.644 4.308-3.427 1.762-.783 3.72-1.273 5.775-1.273 4.112 0 7.343 1.273 9.79 3.818Zm9.3 4.406c1.37-2.644 3.427-4.602 5.874-6.07 2.545-1.468 5.384-2.154 8.615-2.154 4.21 0 7.636 1.077 10.377 3.133 2.741 2.056 4.601 4.993 5.482 8.81h-9.202c-.49-1.468-1.273-2.643-2.447-3.426-1.175-.783-2.546-1.272-4.308-1.272-2.447 0-4.307.88-5.776 2.643-1.37 1.762-2.154 4.21-2.154 7.538 0 3.096.63 5.473 1.975 7.216l.18.224c1.37 1.762 3.328 2.643 5.775 2.643 3.426 0 5.678-1.566 6.755-4.6h9.202c-.979 3.621-2.74 6.558-5.482 8.712-2.741 2.154-6.167 3.23-10.28 3.23-3.23 0-6.069-.685-8.614-2.153-2.545-1.469-4.503-3.427-5.874-6.07-1.302-2.51-2.074-5.375-2.148-8.593l-.006-.511c-.097-3.72.588-6.755 2.056-9.3Zm46.99-6.657c1.763-.98 3.819-1.469 6.07-1.469v8.81h-2.251c-2.644 0-4.7.588-6.07 1.86-1.37 1.274-2.056 3.427-2.056 6.56v16.74h-8.517V36.044h8.517v5.188a11.563 11.563 0 0 1 4.308-4.111Zm31.72 12.628c0-2.153-.784-3.916-2.35-5.286-1.567-1.273-3.427-1.958-5.678-1.958-1.948 0-3.72.615-5.066 1.762l-.22.196c-1.47 1.273-2.35 3.035-2.644 5.286h15.957Zm8.614 5.678h-24.572c.196 2.448 1.077 4.308 2.545 5.678 1.469 1.37 3.329 2.056 5.483 2.056 3.132 0 5.384-1.37 6.755-4.112h9.202c-.98 3.231-2.84 5.874-5.58 8.028-2.741 2.056-6.168 3.133-10.182 3.133-3.23 0-6.167-.686-8.712-2.154-2.425-1.399-4.405-3.241-5.772-5.697l-.2-.373c-1.469-2.643-2.154-5.678-2.154-9.104 0-3.356.622-6.269 1.95-8.822l.204-.38a14.293 14.293 0 0 1 5.972-6.07c2.545-1.37 5.482-2.154 8.81-2.154 3.23 0 6.07.686 8.615 2.056 2.546 1.37 4.503 3.329 5.874 5.874 1.37 2.545 2.056 5.384 2.056 8.713l-.074.92-.073.854-.147 1.554ZM339.8 43.092v16.251c0 1.175.293 1.958.783 2.448.587.49 1.468.783 2.74.783h3.917v7.146h-5.385c-7.146 0-10.768-3.524-10.768-10.475V43.092h-4.014v-6.95h4.014V27.82h8.517v8.322h7.538v6.95H339.8Zm33.774 6.657c0-2.153-.783-3.916-2.35-5.286-1.566-1.273-3.426-1.958-5.678-1.958-1.947 0-3.72.615-5.066 1.762l-.22.196c-1.468 1.273-2.35 3.035-2.643 5.286h15.957Zm8.517 5.678h-24.572c.196 2.448 1.077 4.308 2.545 5.678 1.469 1.37 3.329 2.056 5.482 2.056 3.133 0 5.385-1.37 6.755-4.112h9.203c-.98 3.231-2.84 5.874-5.58 8.028-2.742 2.056-6.168 3.133-10.182 3.133-3.23 0-6.167-.686-8.713-2.154-2.424-1.399-4.404-3.241-5.77-5.697l-.201-.373c-1.469-2.643-2.154-5.678-2.154-9.104 0-3.356.622-6.269 1.95-8.822l.204-.38a14.293 14.293 0 0 1 5.971-6.07c2.546-1.37 5.483-2.154 8.811-2.154 3.23 0 6.07.686 8.615 2.056s4.503 3.329 5.874 5.874c1.37 2.545 2.056 5.384 2.056 8.713l-.033.468-.077 1.306a14.01 14.01 0 0 1-.12 1.182l-.064.372Zm4.558-17.79.239-.419c1.86-3.328 4.405-5.873 7.734-7.733 3.23-1.86 6.95-2.741 10.964-2.741 4.7 0 8.909 1.174 12.433 3.622 3.524 2.447 6.07 5.776 7.44 10.083h-9.79c-.978-2.056-2.349-3.524-4.111-4.601-1.762-.979-3.818-1.469-6.07-1.469-2.303 0-4.433.52-6.226 1.561l-.333.202c-1.958 1.174-3.426 2.74-4.503 4.894s-1.566 4.602-1.566 7.44c0 2.84.49 5.287 1.566 7.343 1.077 2.056 2.545 3.72 4.503 4.895 1.958 1.174 4.112 1.762 6.56 1.762 2.349 0 4.307-.49 6.069-1.567 1.762-1.076 3.133-2.545 4.112-4.6h9.79c-1.371 4.307-3.917 7.733-7.44 10.083-3.525 2.447-7.735 3.622-12.434 3.622-4.014 0-7.734-.881-10.964-2.741-3.23-1.86-5.874-4.406-7.734-7.636-1.86-3.23-2.84-7.049-2.84-11.16 0-4.035.81-7.62 2.6-10.84Zm89.814-10.306v42.39h-8.517V42.112L456.59 69.72h-6.363l-11.454-27.607V69.72h-8.517V27.33h9.692l13.412 31.524 13.51-31.523h9.593Zm12.63 41.312c-2.35-.979-4.21-2.447-5.581-4.405-1.37-1.86-2.056-4.112-2.154-6.755h9.105c.098 1.762.783 3.133 1.86 4.112 1.077.979 2.643 1.566 4.6 1.566 1.959 0 3.525-.49 4.7-1.468 1.175-.98 1.664-2.154 1.664-3.72 0-1.273-.391-2.252-1.175-3.133a9.779 9.779 0 0 0-2.839-1.958 20.13 20.13 0 0 0-.81-.316l-.603-.213-.655-.217-.709-.224-.764-.231-.822-.241-.434-.124c-2.74-.784-4.992-1.567-6.754-2.35a10.486 10.486 0 0 1-4.406-3.622c-1.272-1.566-1.86-3.72-1.86-6.363 0-2.546.588-4.7 1.86-6.56 1.273-1.86 3.035-3.328 5.287-4.307 2.251-.979 4.895-1.468 7.734-1.468 4.405 0 7.93 1.076 10.67 3.23 2.741 2.154 4.21 5.09 4.504 8.909h-9.3c-.099-1.469-.686-2.643-1.86-3.622-1.175-.98-2.644-1.469-4.602-1.469-1.664 0-2.937.392-4.014 1.273-.979.88-1.468 2.056-1.468 3.72 0 1.175.392 2.056 1.077 2.839.705.705 1.489 1.251 2.495 1.71l.344.15c.574.261 1.288.522 2.14.798l.666.21.718.217 1.175.341a51.445 51.445 0 0 1 5.639 1.968l.757.322.359.158c1.762.783 3.23 2.056 4.503 3.622 1.273 1.664 1.86 3.72 1.86 6.363 0 2.252-.587 4.406-1.762 6.266-1.175 1.958-2.937 3.524-5.189 4.6-2.251 1.078-4.992 1.763-8.027 1.763-2.937.098-5.58-.392-7.93-1.37Z"/>
</svg>
